X: 59
T:Vassr\aafela
M:4/4
L:1/8
Q:100
C:trad.
O:Norway
A:Gudbrandsdalen
Z:Transcribed by Frank Nordberg - http://www.musicaviva.com
K:Ador
"Am"ee dc "G"BG|"Am"A3z::"Am"EA Ac "G"BG|"Am"A3z:|
"Am"e2-e/d/c/d/|"Am"eg "D"(fd)|"Am"e3z|"G"d2-d/c/B/A/ (BG)|"Am"A3z|]
w:Vassr\aafela var t\aa tre.
W:Djupt i ljosna sakk ho ned.
W:I ei br\aato fanns ho att,
W:Sia let ho dag og natt.
W:Su-di-du-di-du-di-dei-da,
W:Su-di-du-di-dei-da.
W:
W: From "Falaleiro" http://home.t-online.de/home/pheld/homepage.htm

% Output from ABC2Win  Version 2.1 i on 14.04.2001
